src/pos-icons/credit-card-minus.svg

<svg height="24" viewBox="0 0 24 24" width="24" xmlns="http://www.w3.org/2000/svg"><path d="m20 4h-16a2 2 0 0 0 -2 2v12a2 2 0 0 0 2 2h9v-4h9v-10a2 2 0 0 0 -2-2m0 7h-16v-3h16m3 12h-8v-2h8z"/></svg>

<?xml version="1.0" encoding="UTF-8"?><!DOCTYPE svg PUBLIC "-//W3C//DTD SVG 1.1//EN" "http://www.w3.org/Graphics/SVG/1.1/DTD/svg11.dtd"><svg xmlns="http://www.w3.org/2000/svg" xmlns:xlink="http://www.w3.org/1999/xlink" version="1.1" id="mdi-credit-card-minus" width="24" height="24" viewBox="0 0 24 24"><path d="M20 4H4A2 2 0 0 0 2 6V18A2 2 0 0 0 4 20H13V16H22V6A2 2 0 0 0 20 4M20 11H4V8H20M23 20H15V18H23Z" /></svg>
